actions/22x22-light/document-cleanup.svg

<svg viewBox="0 0 22 22" xmlns="http://www.w3.org/2000/svg"><path d="m7.6660156 6-5.8808594 5.734375-.7851562.765625.7851562.765625 5.8808594 5.734375h10.2792964 1.554688.5.5c.277 0 .5-.223.5-.5v-12c0-.277-.223-.5-.5-.5h-1-1.554688zm2.7675784 3.25 2.232422 2.177734 2.234375-2.177734 1.099609 1.072266-2.232422 2.177734 2.232422 2.177734-1.099609 1.072266-2.234375-2.177734-2.232422 2.177734-1.0996096-1.072266 2.2324216-2.177734-2.2324216-2.177734z" fill="#4d4d4d"/></svg>

<svg xmlns="http://www.w3.org/2000/svg" viewBox="0 0 22 22">
  <defs id="defs3051">
    <style type="text/css" id="current-color-scheme">
      .ColorScheme-Text {
        color:#4d4d4d
      }
      </style>
  </defs>
    <path
       style="fill:currentColor;fill-opacity:1;stroke:none"
	 class="ColorScheme-Text"
       d="M 7.6660156 6 L 1.7851562 11.734375 L 1 12.5 L 1.7851562 13.265625 L 7.6660156 19 L 17.945312 19 L 19.5 19 L 20 19 L 20.5 19 C 20.777 19 21 18.777 21 18.5 L 21 6.5 C 21 6.223 20.777 6 20.5 6 L 19.5 6 L 17.945312 6 L 7.6660156 6 z M 10.433594 9.25 L 12.666016 11.427734 L 14.900391 9.25 L 16 10.322266 L 13.767578 12.5 L 16 14.677734 L 14.900391 15.75 L 12.666016 13.572266 L 10.433594 15.75 L 9.3339844 14.677734 L 11.566406 12.5 L 9.3339844 10.322266 L 10.433594 9.25 z "
        />
</svg>
